X:1
T:Miss Thompson's Hornpipe
R:Reel
M:4/4
L:1/8
K:D
(3ABc|"D"d3f "A7"edcB|"D"A2AB AGFE|"D"DFAF "G"DGBG|"D"DFAF "A7"GFEC|
"D"d3f "A7"edcB|"D"A2AB AGFE|"D"DFAd "A7"fedc|1"D"d2 dc d2 :|2"D"d2dc d2cd||
|:"A"e2ec Aceg|"D"f2fd Adfa|"G"g2ge "D"f2fd|"Em"edcB "A"A2GA|
"G"B2BG DGBG|"D"A2AF DFAF|"D"DFAd "A7"fedc|1"D"d2 dc d2 cd:|2"D"d2dc d2|]
